dist/svgs/crypto-icons/icons/xtz.svg

<?xml version="1.0" encoding="UTF-8" standalone="yes"?>
<svg xmlns="http://www.w3.org/2000/svg" xmlns:xlink="http://www.w3.org/1999/xlink" width="512px" height="512px" viewBox="0 0 384 384" version="1.1">
  <g id="surface1">
    <path style=" stroke:none;fill-rule:nonzero;fill:rgb(0%,0%,0%);fill-opacity:1;" d="M 225.746094 384 C 198.277344 384 178.140625 377.429688 165.65625 364.136719 C 153.015625 350.996094 146.773438 336.761719 146.773438 321.433594 C 146.773438 315.804688 147.867188 311.109375 150.050781 307.355469 C 152.238281 303.605469 155.203125 300.476562 159.105469 298.285156 C 162.847656 296.097656 167.53125 295 173.152344 295 C 178.769531 295 183.457031 296.097656 187.199219 298.285156 C 190.945312 300.476562 194.070312 303.449219 196.253906 307.355469 C 198.4375 311.265625 199.53125 315.804688 199.53125 321.433594 C 199.53125 328.160156 197.972656 333.632812 194.695312 337.855469 C 191.417969 342.082031 187.671875 344.894531 183.300781 346.148438 C 187.046875 351.464844 193.132812 355.21875 201.246094 357.410156 C 209.363281 359.601562 217.636719 360.851562 225.910156 360.851562 C 237.300781 360.851562 247.605469 357.71875 256.8125 351.621094 C 266.019531 345.523438 272.886719 336.289062 277.257812 324.402344 C 281.628906 312.359375 283.8125 298.753906 283.8125 283.421875 C 283.8125 266.84375 281.472656 252.609375 276.636719 240.878906 C 271.953125 229.148438 264.929688 220.390625 255.71875 214.601562 C 246.511719 208.816406 236.523438 206 225.910156 206 C 218.886719 206 210.144531 208.96875 199.53125 214.757812 L 180.179688 224.453125 L 180.179688 215.070312 L 267.113281 99.011719 L 146.773438 99.011719 L 146.773438 219.605469 C 146.773438 229.617188 148.957031 237.75 153.328125 244.320312 C 157.699219 250.730469 164.410156 254.015625 173.460938 254.015625 C 180.480469 254.015625 187.195312 251.667969 193.59375 246.976562 C 199.992188 242.285156 205.613281 236.5 210.292969 229.773438 C 210.921875 228.519531 211.542969 227.425781 212.480469 226.800781 C 213.417969 226.175781 214.351562 225.863281 215.289062 225.863281 C 216.847656 225.863281 218.878906 226.644531 221.0625 228.207031 C 223.09375 230.554688 224.1875 233.214844 224.1875 236.34375 C 223.941406 238.394531 223.578125 240.429688 223.09375 242.441406 C 218.097656 253.546875 211.230469 262.148438 202.488281 267.9375 C 193.75 273.882812 184.074219 276.695312 173.460938 276.695312 C 147.398438 276.695312 129.445312 271.535156 119.457031 261.367188 C 109.46875 251.042969 104.476562 237.121094 104.476562 219.605469 L 104.476562 99.011719 L 43.136719 99.011719 L 43.136719 76.488281 L 104.628906 76.488281 L 104.628906 25.496094 L 90.585938 11.417969 L 90.585938 0 L 131.320312 0 L 146.617188 7.976562 L 146.617188 76.644531 L 305.503906 76.175781 L 321.269531 91.972656 L 223.878906 189.574219 C 229.808594 187.230469 235.894531 185.820312 242.292969 185.195312 C 252.90625 185.195312 264.769531 188.480469 278.035156 195.207031 C 291.304688 201.933594 301.449219 211.003906 308.628906 222.421875 C 315.808594 234 320.488281 244.945312 322.519531 255.585938 C 324.703125 266.21875 325.640625 275.605469 325.640625 283.738281 C 325.640625 302.511719 321.738281 320.027344 313.777344 336.140625 C 305.820312 352.25 293.957031 364.292969 277.726562 372.273438 C 261.960938 380.089844 244.480469 384.003906 225.75 384.003906 L 225.746094 384.003906 Z M 225.746094 384 "/>
  </g>
</svg>

<svg xmlns="http://www.w3.org/2000/svg" viewBox="0 0 384 384"><path d="M225.746 384c-27.469 0-47.605-6.57-60.09-19.863-12.64-13.14-18.883-27.375-18.883-42.703 0-5.63 1.094-10.325 3.278-14.079 2.187-3.75 5.152-6.878 9.054-9.07 3.743-2.187 8.426-3.285 14.047-3.285 5.618 0 10.305 1.098 14.047 3.285 3.746 2.192 6.871 5.164 9.055 9.07 2.184 3.91 3.277 8.45 3.277 14.079 0 6.726-1.558 12.199-4.836 16.421-3.277 4.227-7.023 7.04-11.394 8.293 3.746 5.317 9.832 9.07 17.945 11.262 8.117 2.192 16.39 3.442 24.664 3.442 11.39 0 21.695-3.133 30.903-9.23 9.207-6.099 16.074-15.333 20.445-27.22 4.37-12.043 6.555-25.648 6.555-40.98 0-16.578-2.34-30.813-7.176-42.543-4.684-11.73-11.707-20.488-20.918-26.277-9.207-5.786-19.196-8.602-29.809-8.602-7.023 0-15.765 2.969-26.379 8.758l-19.351 9.695v-9.383l86.933-116.058h-120.34v120.593c0 10.012 2.184 18.145 6.555 24.715 4.371 6.41 11.082 9.696 20.133 9.696 7.02 0 13.734-2.348 20.133-7.04 6.398-4.69 12.02-10.476 16.699-17.203.629-1.253 1.25-2.347 2.187-2.972.938-.625 1.872-.938 2.81-.938 1.558 0 3.589.782 5.773 2.344 2.03 2.348 3.125 5.008 3.125 8.137a53.03 53.03 0 01-1.094 6.097c-4.996 11.106-11.864 19.707-20.606 25.496-8.738 5.946-18.414 8.758-29.027 8.758-26.063 0-44.016-5.16-54.004-15.328-9.988-10.324-14.98-24.246-14.98-41.762V99.012h-61.34V76.488h61.492V25.496L90.586 11.418V0h40.734l15.297 7.977v68.668l158.887-.47 15.766 15.798-97.391 97.601c5.93-2.344 12.016-3.754 18.414-4.379 10.613 0 22.477 3.285 35.742 10.012 13.27 6.727 23.414 15.797 30.594 27.215 7.18 11.578 11.86 22.523 13.89 33.164 2.184 10.633 3.122 20.02 3.122 28.152 0 18.774-3.903 36.29-11.864 52.403-7.957 16.109-19.82 28.152-36.05 36.132-15.766 7.817-33.247 11.73-51.977 11.73h-.004zm0 0"/></svg>
